svg/astro.svg

<svg viewBox="0 0 20 20" xmlns="http://www.w3.org/2000/svg">
  <rect width="100%" height="100%" fill="#1C1E24" />
  <path
    d="M7.34904 16.6227C6.46072 15.8193 6.20237 14.1347 6.57044 12.9137C7.21456 13.6852 8.10288 13.9294 9.02659 14.0675C10.4493 14.2798 11.8473 14.1984 13.1674 13.5578C13.3196 13.4835 13.4576 13.3844 13.6239 13.2888C13.7478 13.6428 13.7796 14.0002 13.7372 14.3647C13.631 15.2531 13.1815 15.9396 12.4702 16.4599C12.187 16.6687 11.8827 16.8563 11.5889 17.0509C10.6864 17.6561 10.4422 18.3604 10.782 19.3903C10.7891 19.4151 10.7962 19.4398 10.8138 19.5C10.3538 19.2983 10.014 19.001 9.75919 18.6117C9.48668 18.1976 9.35573 17.7411 9.35219 17.2491C9.34865 17.0085 9.34865 16.7678 9.31326 16.5307C9.2354 15.9538 8.95935 15.6954 8.44263 15.6813C7.91176 15.6671 7.49415 15.9892 7.3809 16.4988C7.37382 16.5378 7.35966 16.5767 7.34904 16.6227Z"
    fill="url(#paint0_linear_24_21)" />
  <path
    d="M2.87915 13.2888C2.87915 13.2888 5.31053 12.1068 7.74899 12.1068L9.5858 6.43354C9.65304 6.16103 9.85477 5.97346 10.0813 5.97346C10.3078 5.97346 10.5095 6.16103 10.5768 6.43354L12.4171 12.1068C15.3015 12.1068 17.2834 13.2888 17.2834 13.2888C17.2834 13.2888 13.1568 2.0698 13.1462 2.04503C13.0294 1.71589 12.8276 1.5 12.5587 1.5H7.60389C7.33491 1.5 7.1438 1.71589 7.01639 2.04503C7.00577 2.0698 2.87915 13.2888 2.87915 13.2888Z"
    fill="white" />
  <linearGradient id="paint0_linear_24_21" x1="6.40822" y1="19.5017" x2="14.9504" y2="15.4119"
    gradientUnits="userSpaceOnUse">
    <stop stop-color="#D83333" />
    <stop offset="1" stop-color="#F041FF" />
  </linearGradient>
</svg>

<svg xmlns="http://www.w3.org/2000/svg" viewBox="0 0 20 20">
  <rect width="100%" height="100%" fill="#1C1E24"/>
  <path fill="url(#a)" d="M7.35 16.62c-.89-.8-1.15-2.49-.78-3.7.64.77 1.53 1 2.46 1.15 1.42.21 2.82.13 4.14-.51l.45-.27c.13.35.16.71.12 1.07-.1.9-.56 1.58-1.27 2.1l-.88.6c-.9.6-1.15 1.3-.8 2.33l.02.11a2.46 2.46 0 0 1-1.46-2.25c0-.24 0-.48-.04-.72-.07-.58-.35-.83-.87-.85-.53-.01-.95.3-1.06.82l-.03.12Z"/>
  <path fill="#fff" d="M2.88 13.29S5.3 12.1 7.75 12.1l1.84-5.68c.06-.27.26-.46.5-.46.22 0 .42.2.49.46l1.84 5.68a10.3 10.3 0 0 1 4.86 1.18L13.15 2.05c-.12-.33-.32-.55-.6-.55H7.6c-.27 0-.46.22-.58.55L2.88 13.29Z"/>
  <linearGradient id="a" x1="6.41" x2="14.95" y1="19.5" y2="15.41" gradientUnits="userSpaceOnUse">
    <stop stop-color="#D83333"/>
    <stop offset="1" stop-color="#F041FF"/>
  </linearGradient>
</svg>
